X: 24949
T: Maid In The Cherry Tree, The
R: reel
M: 4/4
K: Amixolydian
eAAF ~G2 (3Bcd|eAAf (3gfe fd|eAAF ~G2 (3Bcd|edgd BA (3Bcd:|
ea~a2 bgag|eaaf gfed|ea~a2 bgag|edgd BA (3Bcd|
ea~a2 bgag|eaaf ~g3a|bgaf gfed|edgd BA (3Bcd||

